source/presentation/public/images/icons/types/water.svg

<svg width="1em" height="1em" viewBox="0 0 35 35" fill="none" xmlns="http://www.w3.org/2000/svg">
<circle cx="17.5" cy="17.5" r="17.5" fill="#3F9DC7"/>
<path fill-rule="evenodd" clip-rule="evenodd" d="M13.3856 28.0163C18.5189 30.2144 23.949 29.0333 25.5141 25.3782C26.5677 22.9176 25.6013 19.9632 23.2911 17.6243C23.2911 17.6243 22.7704 17.2247 22.1908 16.6391C21.6144 16.0567 20.9798 15.2903 20.7411 14.55C20.3456 13.3235 20.2974 12.46 20.7411 11.25C21.2829 9.77222 22.2772 9.26678 23.5911 8.40002C24.9077 7.53147 27.3411 6.90002 27.3411 6.90002C27.3411 6.90002 23.563 7.05586 21.1911 7.50002C18.676 7.97099 14.8911 9.30002 14.8911 9.30002C14.8911 9.30002 10.9546 10.8368 9.19107 12.75C8.27708 13.7416 7.76717 14.3583 7.24107 15.6C6.74989 16.7594 6.55375 18.75 6.55375 18.75C6.07282 22.1564 8.85738 26.0773 13.3856 28.0163ZM14.1047 27.0449C16.0302 27.8485 17.85 27.8796 18.1695 27.1142C18.4889 26.3489 17.187 25.077 15.2616 24.2733C13.3361 23.4696 11.5163 23.4386 11.1968 24.2039C10.8774 24.9693 12.1793 26.2412 14.1047 27.0449Z" fill="black"/>
</svg>

<svg width="1em" height="1em" viewBox="0 0 35 35" xmlns="http://www.w3.org/2000/svg">
<circle cx="17.5" cy="17.5" r="17.5" fill="#3F9DC7"/>
<path d="m13.386 28.016c5.1333 2.1981 10.563 1.017 12.128-2.6381 1.0536-2.4606 0.0872-5.415-2.223-7.7539 0 0-0.5207-0.3996-1.1003-0.9852-0.5764-0.5824-1.211-1.3488-1.4497-2.0891-0.3955-1.2265-0.4437-2.09 0-3.3 0.5418-1.4778 1.5361-1.9832 2.85-2.85 1.3166-0.86855 3.75-1.5 3.75-1.5s-3.7781 0.15584-6.15 0.6c-2.5151 0.47097-6.3 1.8-6.3 1.8s-3.9365 1.5368-5.7 3.45c-0.91399 0.9916-1.4239 1.6083-1.95 2.85-0.49118 1.1594-0.68732 3.15-0.68732 3.15-0.48093 3.4064 2.3036 7.3273 6.8318 9.2663zm0.7191-0.9714c1.9255 0.8036 3.7453 0.8347 4.0648 0.0693 0.3194-0.7653-0.9825-2.0372-2.9079-2.8409-1.9255-0.8037-3.7453-0.8347-4.0648-0.0694-0.3194 0.7654 0.9825 2.0373 2.9079 2.841z" clip-rule="evenodd" fill-rule="evenodd"/>
</svg>
